!!!OTL: HOPSA HOPSA RUEBER UND NUEBER
!!!ARE: Europa, Mitteleuropa, Deutschland, Schlesien
!!!SCT: E1763
!!!YEM: Copyright 1995, estate of Helmut Schaffrath.
**kern
*ICvox
*Ivox
*M2/4
*k[f#c#g#]
*A:
=1
{8a
8a
8a
8cc#
=2
16cc#
16cc#
8b
8b
8a}
=3
{16cc#
16cc#
8cc#
16cc#
16cc#
8ee
=4
8ee
8dd
8dd
8cc#}
=5
{4cc#
4b
=6
4a
4r}
=7
{8g#
8b
8b
8b
=8
8a
8a
8a
8f#}
=9
{8g#
8b
8b
8b
=10
8b
8a
8a
8f#}
=11
{4g#
4f#
=12
4e
4r}
=13
{8a
8a
8a
8cc#
=14
16cc#
16cc#
8b
8b
8a}
=15
{16cc#
16cc#
8cc#
16cc#
16cc#
8ee
=16
8ee
8dd
8dd
8cc#}
=17
{4cc#
4b
=18
4a
4r}
==
!!!AGN: Spott - Lied auf Bauern
!!!ONB: ESAC (Essen Associative Code) Database: ERK3
!!!AMT: simple duple
!!!AIN: vox
!!!EED: Helmut Schaffrath
!!!EEV: 1.0
*-
